X: 67
T: Piano Sonata No. 17 in D major, K 576, mvmt. 1
C: Wolfgang Amadeus Mozart
%%abc-version 2.0
%%abcx-abcm2ps-target-version 5.9.1 (29 Sep 2008)
%%abc-creator hum2abc beta
%%abcx-conversion-date 2021/01/14 17:01:32
%%abc-copyright 2018 Craig Stuart Sapp
%%abc-edited-by Craig Stuart Sapp
%%abc-edited-by Craig Stuart Sapp
%%abcx-initial-encoding-date 2009/10/07
%%gracespace 0 6 6
%%humdrum-veritas 943932442
%%humdrum-veritas-data 2913651041
%%linebreak <none>
%%barnumbers 0
L: 1/16
M: 6/8
N: Derived from sonata17-1.krn
Q: "Allegro" 3/8=84
%%staves {1 2}
V: 1 clef=treble
V: 2 clef=bass
K: D
[V:1] A,2 [I:setbarnb 1]| 
[V:2] A,,2 | 
[V:1] D2A,2D2 F2D2F2 | 
[V:2] D,2A,,2D,2 F,2D,2F,2 | 
[V:1] A4A2A4!trill!cB/c/ | 
[V:2] A,4A,2A,4[K:clef=treble]G2 | 
[V:1] d2 z2 !trill!ed/e/ f2 z2 ag | 
[V:2] F2 z2 C2 D2 z2 [G,2E2] | 
[V:1] f4>e4 z2 B,2 | 
[V:2] [A,4-D4]>[A,4C4] z2[K:clef=bass] B,,2 | 
[V:1] E2B,2E2 G2E2G2 | 
[V:2] E,2B,,2E,2 G,2E,2G,2 | 
[V:1] B4B2B4^d2 | 
[V:2] B,4B,2B,4[K:clef=treble][F2A2] | 
[V:1] fegfag b2 z2 c2 | 
[V:2] [G4B4]z2 z2 z2 [A,2E2] | 
[V:1] e4>=d4 z2 z2 | 
[V:2] [D4-G4]>[D4F4] z2[K:clef=bass] A,,2 | 
[V:1] z2 d2f2 a2f2d'2- | 
[V:2] D,2A,,2D,2 F,2D,2F,2 | 
[V:1] d'c'e'd'c'b abagfe | 
[V:2] A,4A,2A,4C2 | 
[V:1] fafdcA dcdfeg | 
[V:2] D2 z2[K:clef=treble] E2 F2 z2 G2 | 
[V:1] d4>c4 z2 z2 | 
[V:2] [A,4-F4]>[A,4E4] z2[K:clef=bass] B,,2 | 
[V:1] z2 e2g2 b2g2e'2- | 
[V:2] E,2B,,2E,2 G,2E,2G,2 | 
[V:1] e'^d'=c'bag fe^d=cBA | 
[V:2] B,4B,2B,4^D2 | 
[V:1] GBeBge b2B2^c2 | 
[V:2] E4z2 z2 z2[K:clef=treble] [A,2G2] | 
[V:1] d4z2 z2 d'c'ba | 
[V:2] D2F2A2 D2F2A2 | 
[V:1] ^gagaba z2 a=gfe | 
[V:2] C2E2A2 E2G2A2 | 
[V:1] cdcded z2 d'c'ba | 
[V:2] D2F2A2 D2F2A2 | 
[V:1] ^gagaba z2 a=gfe | 
[V:2] C2E2A2 E2G2A2 | 
[V:1] cdcdgf ^dedeag | 
[V:2] [F4A4]z2[C4A4]z2 | 
[V:1] ^efefba agf=edc | 
[V:2] [D4A4]z2A6 & x4>E4F2G2 | 
[V:1] cdcdgf ^dedeag | 
[V:2] A4z2[C4A4]z2 & F4x8 | 
[V:1] ^efefba agf=edc | 
[V:2] [D4A4]z2A6 & x4>E4F2G2 | 
[V:1] z dfad'c' z Bdfba | 
[V:2] [F4A4][E2G2][D4F4][C2E2][K:clef=bass] | 
[V:1] z GBdgf z EGBed | 
[V:2] [B,4D4][A,2C2][G,4B,4][^G,2B,2] | 
[V:1] c2a2[d2f2] [c2e2]a2[d2f2] | 
[V:2] A,ECEDF A,ECEDF | 
[V:1] [c2e2]a2A2 A2 z2 e2 | 
[V:2] [A,2C2E2] z2 [A,,2A,2] [A,,2A,2] z2 z2[K:clef=treble] | 
[V:1] a2e2a2 c'2a2c'2 | 
[V:2] E2A2E2 A2c2A2 | 
[V:1] e'd'c'b^a^g fedcB^A | 
[V:2] c2edcB ^A^GFEDC[K:clef=bass] | 
[V:1] B2F2B2 d2B2d2 | 
[V:2] B,^A, B,2F,2 B,2D2B,2 | 
[V:1] fedcB^A dcB=A^GF | 
[V:2] D2FEDC B,^A,DCB,=A, | 
[V:1] E2B,2E2 ^G2E2G2 | 
[V:2] ^G,F, E,2B,,2 E,2G,2E,2 | 
[V:1] BcdcBA ^GFEFDE | 
[V:2] ^G,2B,CDC B,A,G,F,G,E, | 
[V:1] CE^DEFE AEDEFE | 
[V:2] A,4z2[A,4C4]z2 | 
[V:1] B,E^DECE =DECEB,E | 
[V:2] ^G,4A,2 B,2A,2G,2 | 
[V:1] CE^DEFE AEDEFE | 
[V:2] A,4z2[A,4C4]z2 | 
[V:1] B,E^DECE =DECEB,E | 
[V:2] ^G,4A,2 B,2A,2G,2 | 
[V:1] z CEAce a^gfedc | 
[V:2] A,4z2 [A,2C2][B,2D2][C2E2] | 
[V:1] z ^ABcde fedcB=A | 
[V:2] [D4F4]z2 [B,2D2][C2E2][D2F2] | 
[V:1] EcAeca!trill!B6{/AB} | 
[V:2] z2 [A,2C2][A,2C2] z2 [^G,2D2][G,2D2] & E,6E,6 | 
[V:1] A2A,2A,2 A,2 z2 c2 | 
[V:2] C2 x2x8 & A,2 A,,2A,,2 A,,2 z2 z2 | 
[V:1] d4e2 f2edcB | 
[V:2] z12 | 
[V:1] A6^G4F2 | 
[V:2] [E,6B,6D6]-[E,4B,4D4][D,2^G,2] | 
[V:1] F2E2.E2 E2A2c2 & x6x4A2 | 
[V:2] [C,4A,4]z2 z2 C,2A,,2 | 
[V:1] c4d2 B2x4 & A4>^G4 z2 c2 | 
[V:2] E,4>-E,4 z2 z2 | 
[V:1] d2dced fedcdB | 
[V:2] z12 | 
[V:1] A^GBAcB dcedfe | 
[V:2] [E,6B,6D6]-[E,4B,4D4][K:clef=treble][D2^G2] | 
[V:1] ea^g=gf=f ea^g=g^f=f | 
[V:2] [C2A2] z2 [D2A2] [C2A2] z2 [D2A2] | 
[V:1] e6^e6 | 
[V:2] A6[^G6B6] & C12 | 
[V:1] f2 z2 f^g a^efcdB | 
[V:2] [F2A2] z2 z2z4z2[K:clef=bass] & D2 z2x8 | 
[V:1] A12 | 
[V:2] z2 z2 [E,2C2][=F,4D4][^F,2^D2] | 
[V:1] c4>{/c//} .B4.A2.B2 & A6^G4z2 | 
[V:2] E6=D6 & E,12 | 
[V:1] A2 z2 ^de fe=dcBA | 
[V:2] A,2C2E2 A,2C2E2 | 
[V:1] ^GABcde f^gabc'd' | 
[V:2] E,2^G,2B,2 E,2G,2B,2 | 
[V:1] c'2 z2 ^de fe=dcBA | 
[V:2] A,2C2E2 A,2C2E2 | 
[V:1] ^GFEFGA Bcdef^g | 
[V:2] E,2B,2D2 E,2B,2D2 | 
[V:1] a2e2c'2 a2e2c'2 | 
[V:2] C4E2C4E2 & A,6A,6 | 
[V:1] a4z2z4 :|]  
[V:2] C4z6 & A,4z2z4 :|]  
[V:1] z2 [I:setbarnb 59]| 
[V:2] z2 | 
[V:1] a2e2=c'2 a2e2c'2 | 
[V:2] =C4E2C4E2 & A,6A,6 | 
[V:1] a4z2z4z2 | 
[V:2] =C4x8 & A,4z2z4z2 | 
[V:1] a2_e2=c'2 a2e2c'2 | 
[V:2] [=C6_E6][C6E6] & =F,4_G,2F,4G,2 | 
[V:1] a4z2z4=F2 | 
[V:2] [=C4_E4]z8 & =F,4z2z4z2 | 
[V:1] _B2=F2B2 d2B2d2 | 
[V:2] z4z2z4=F,2 | 
[V:1] =f4f2f4_b2 | 
[V:2] _B,2=F,2B,2 D2B,2D2 | 
[V:1] ag=fga_b =c'babc'd' | 
[V:2] =F4F2F4[K:clef=treble]_B2 | 
[V:1] _e'2=f2e'2- e'2f2e'2- | 
[V:2] AG=FGA_B =cBABcd | 
[V:1] e'=f'_e'd'=c'_b abag=f_e | 
[V:2] _e2>=f2ed =cdc_BAG | 
[V:1] d_ed=c'ec' dedc'ec' | 
[V:2] ^F4G2F4G2 | 
[V:1] d=c'ag^f_e ded=c_BA | 
[V:2] ^F4z2z4[K:clef=bass]D,2 | 
[V:1] G2 z2 D2 G2D2G2 | 
[V:2] G,2D,2G,2 _B,2G,2B,2 | 
[V:1] _B2G2B2d4d2 | 
[V:2] D4D2D4[K:clef=treble]G2 | 
[V:1] d4g2 ^f=efd_b2 | 
[V:2] ^F=EFD_B2 A2 z2 G2 | 
[V:1] a2 z2 a2 gfgd=c'2 | 
[V:2] FEFD=c2 _B2 z2 A2 | 
[V:1] _bd_eded a^d=eded | 
[V:2] G6=F6 | 
[V:1] ^ga=b=c'd'c' bag=fed | 
[V:2] E4z2z4z2[K:clef=bass] | 
[V:1] =c6B6 | 
[V:2] A,E=FEFE =G,^E^FEFE | 
[V:1] z ^A^c^f^ac' e'c'a=gfe | 
[V:2] [^F,4^F4]z2z4z2[K:clef=treble] | 
[V:1] d2 z2 z d [B2^e2] z2 z [Be] | 
[V:2] z B,DF B2 z G,B,D G2[K:clef=bass] | 
[V:1] fcf^ac'a d'bd'b^g^e | 
[V:2] z2 [^A,2C2][A,2C2] z2 [B,2D2][B,2D2] & F,6F,6 | 
[V:1] fcf^ac'a d'bd'b^g^e | 
[V:2] z2 [^A,2C2][A,2C2] z2 [B,2D2][B,2D2] & F,6F,6 | 
[V:1] f2c2^a2 f2c2a2 | 
[V:2] [^A,4C4]z8[K:clef=treble] & F,4z2z4z2 | 
[V:1] f4z2z4z2 | 
[V:2] F2C2^A2 F2C2A2 | 
[V:1] f2c2=a2 f2c2a2 | 
[V:2] F4z2z4z2 | 
[V:1] ^g2c2b2 g2c2b2 | 
[V:2] B12 & F6^E6 | 
[V:1] ^a2c2c'2 a2c2c'2 | 
[V:2] =G6F6[K:clef=bass] & =E12 | 
[V:1] b4z2z4z2 | 
[V:2] B,2F,2D2 B,2F,2D2 | 
[V:1] b6^a6 & e12 | 
[V:2] C2F,2E2 C2F,2E2 | 
[V:1] =a12 & =c6B6 | 
[V:2] ^D2F,2F2 D2F,2F2 | 
[V:1] e2B2=g2 e2B2g2 | 
[V:2] E4z2z4z2 | 
[V:1] f2B2a2 f2B2a2 | 
[V:2] E6^D6 & B,12 | 
[V:1] ^g2B2b2 g2B2b2 | 
[V:2] =D12[K:clef=treble] & =F,6E,6 | 
[V:1] a4z2z4z2 | 
[V:2] C2A,2E2 C2A,2E2 | 
[V:1] a12 & _B6=B6 | 
[V:2] D2A,2=F2 ^D2A,2^F2 | 
[V:1] a12 & =c6^c6 | 
[V:2] E2A,2G2 E2A,2G2 | 
[V:1] a12 & d6^d6 | 
[V:2] F2A,2A2 =F2A,2A2 | 
[V:1] a12 & e6^f6 | 
[V:2] E2A,2A2 =D2A,2A2 | 
[V:1] gabagf efgfed | 
[V:2] [A,4C4]z2z4z2 | 
[V:1] cdedcB ABAGFE | 
[V:2] z4z2z4[K:clef=bass]A,,2 | 
[V:1] D2A,2D2 F2D2F2 | 
[V:2] D,2A,,2D,2 F,2D,2F,2 | 
[V:1] A4A2A4!trill!cB/c/ | 
[V:2] A,4A,2A,4[K:clef=treble][G2A2] | 
[V:1] d2 z2 !trill!ed/e/ f2 z2 ag | 
[V:2] [F2A2] z2 [C2A2-] [D2A2] z2 [G,2E2] | 
[V:1] f4>e4 z2 B,2 | 
[V:2] [A,4-D4]>[A,4C4] z2[K:clef=bass] B,,2 | 
[V:1] E2B,2E2 G2E2G2 | 
[V:2] E,2B,,2E,2 G,2E,2G,2 | 
[V:1] B4B2B4^d2 | 
[V:2] B,4B,2B,4[K:clef=treble][F2A2] | 
[V:1] fegfag b2 z2 c2 | 
[V:2] [G4B4]z2z4[A,2E2] | 
[V:1] e4>=d4 z2 z2 | 
[V:2] [D4-G4]>[D4F4] z2[K:clef=bass] A,,2 | 
[V:1] z2 d2f2 a2f2d'2- | 
[V:2] D,2A,,2D,2 F,2D,2F,2 | 
[V:1] d'c'e'd'c'b abagfe | 
[V:2] A,4A,2 A,2 z2 G2- | 
[V:1] d4d2 d2 z2 D2 | 
[V:2] GFAGFE DED=CB,A, | 
[V:1] G2D2G2 B2G2B2 | 
[V:2] G,2G,,2B,,2 D,2B,,2G,2- | 
[V:1] d4d2 d2 z2 =c2- | 
[V:2] G,F,A,G,F,E, D,E,D,=C,B,,A,, | 
[V:1] =cBd=cBA G2 z2 =c'2- | 
[V:2] G,,2 z2 =C2- CB,DCB,A, | 
[V:1] c'bd'=c'ba ^g2 z2 d2- | 
[V:2] G,2 z2[K:clef=treble] =c2- cBedcB | 
[V:1] d=cedcB A2 z2 d'2- | 
[V:2] A2 z2[K:clef=bass] D2- D=CEDCB, | 
[V:1] d'=c'e'd'c'b ^a2 z2 e2- | 
[V:2] A,2 z2[K:clef=treble] d2- d^cfedc | 
[V:1] edfed^c B2 z2 f2- | 
[V:2] B2 z2 E2- EDGFED | 
[V:1] fegfed c2 z2 g2 | 
[V:2] C2 z2 F2- FEAGFE | 
[V:1] fdfad'c' z Bdfba | 
[V:2] D2 z2 [E2G2][D4F4][C2E2][K:clef=bass] | 
[V:1] z GBdgf z EGBed | 
[V:2] [B,4D4][A,2C2][G,4B,4][^G,2B,2] | 
[V:1] c2a2[d2f2] [c2e2]a2[d2f2] | 
[V:2] A,ECEDF A,ECEDF | 
[V:1] [c2e2]a2A2 A2 z2 F2 | 
[V:2] [A,2C2E2] z2 [A,,2A,2] [A,,2A,2] z2 z2 | 
[V:1] G4A2 B2AGFE | 
[V:2] z12 | 
[V:1] D6C4B,2 | 
[V:2] [A,,6E,6G,6]-[A,,4E,4G,4][G,,2C,2] | 
[V:1] B,2A,2.A,2 A,2D2.[D2F2] | 
[V:2] [F,,4D,4]z2 z2 F,,2D,,2 | 
[V:1] [D4F4][E2G2] [C2E2] z2 F2 | 
[V:2] A,,4>-A,,4 z2 z2 | 
[V:1] G4A2 B2AGFE | 
[V:2] z12 | 
[V:1] D4>C4B2A2 | 
[V:2] [A,,6-E,6G,6-][A,,4E,4G,4][G,,2C,2] | 
[V:1] A2d2.D2 [D2F2] z2 [C2E2] | 
[V:2] [F,,2D,2] z2 [B,,2G,2] [A,,2A,2] z2 [A,,2G,2] | 
[V:1] [C4E4]>D4 z2 f2 | 
[V:2] [D,4-G,4]>[D,4F,4] z2 z2 | 
[V:1] g2gfag bagfge | 
[V:2] z12[K:clef=treble] | 
[V:1] d4edc4B2 | 
[V:2] [A,6E6G6]-[A,4E4G4][B,2D2^G2] | 
[V:1] B2A2.A2 A2d2.[d2f2] | 
[V:2] [C6E6=G6][D6F6] | 
[V:1] [d4f4][e2g2] .[c2e2] z2 f2 | 
[V:2] [A,4A4]>-[A,4A4] z2 z2 | 
[V:1] g2gfag bagfge | 
[V:2] z12 | 
[V:1] dcedfe gfagba | 
[V:2] [G12A12] | 
[V:1] a6^g6 | 
[V:2] z2 [=F2^d2][F2d2] z2 [E2=d2][E2d2] | 
[V:1] =g4>f4 z2 F2 | 
[V:2] z2 [B2d2][B2d2] [^A2c2] z2 z2[K:clef=bass] | 
[V:1] B2F2B2 d2B2d2 | 
[V:2] F,2B,2F,2 B,2D2B,2 | 
[V:1] fedcB^A dcB=AGF | 
[V:2] D2FEDC B,^A,DCB,=A, | 
[V:1] E2B,2E2 G2E2G2 | 
[V:2] G,F, E,2B,,2 E,2G,2E,2 | 
[V:1] BAGFE^D gfe=dcB | 
[V:2] G,2B,A,G,F, E,^D,GFE=D | 
[V:1] A2E2A2 c2A2c2 | 
[V:2] CB, A,2E,2 A,2C2A,2 | 
[V:1] efgfed cBABGA | 
[V:2] C2EFGF EDCB,CA, | 
[V:1] FA^GABA dAGABA | 
[V:2] D4z2[D4F4]z2 | 
[V:1] EA^GAFA =GAFAEA | 
[V:2] C4D2 E2D2C2 | 
[V:1] z a^gaba d'agaba | 
[V:2] [D4F4]z2[K:clef=treble][d4f4]z2 | 
[V:1] ea^gafa =gafaea | 
[V:2] c4d2 e2d2c2 | 
[V:1] z fgabc' d'c'bagf | 
[V:2] d4z2 [D2F2][E2G2][F2A2] | 
[V:1] z ^defga bagfe=d | 
[V:2] [G4B4]z2 [E2G2][F2A2][G2B2] | 
[V:1] z ^GBAcB dcedfe | 
[V:2] z2 [D2F2][D2F2] z2 [D2F2][D2F2] & A,6A,6 | 
[V:1] =gfagba c'bd'c'e'd' | 
[V:2] z2 [D2F2][D2F2] z2 [D2F2][D2F2] & A,6A,6 | 
[V:1] =f'2 z2 bc' d'^gbd=fB | 
[V:2] [^G,4B,4D4=F4]z2z4z2 | 
[V:1] d12 | 
[V:2] z2 z2 ^F2G4^G2 & z4A,2_B,4=B,2 | 
[V:1] f4>{/f//} .e4.d2.e2 & d6c6 | 
[V:2] A6=G6 & A,12 | 
[V:1] d2 z2 ^ga ba=gfed | 
[V:2] D2F2A2 D2F2A2 | 
[V:1] cd^de=f^f g^ga^ab=g | 
[V:2] A,2C2E2 A,2D2E2 | 
[V:1] f2 z2 ^g=a ba=gfe=d | 
[V:2] D2F2A2 D2F2A2 | 
[V:1] cd^de=f^f gabgec | 
[V:2] A,2E2G2 A,2E2G2 | 
[V:1] =d2A2f2 d2A2f2 | 
[V:2] F4A2F4A2 & D6D6 | 
[V:1] d4z2z4 |]  
[V:2] F4z2z4 & D4x6 |]  


